svg/development/git_pull_request_fill.svg

<?xml version="1.0" encoding="UTF-8"?>
<svg width="24px" height="24px" viewBox="0 0 24 24" version="1.1" xmlns="http://www.w3.org/2000/svg" xmlns:xlink="http://www.w3.org/1999/xlink">
    <title>git_pull_request_fill</title>
    <g id="页面-1" stroke="none" stroke-width="1" fill="none" fill-rule="evenodd">
        <g id="Development" transform="translate(-720.000000, -48.000000)" fill-rule="nonzero">
            <g id="git_pull_request_fill" transform="translate(720.000000, 48.000000)">
                 <path d="M24,0 L24,24 L0,24 L0,0 L24,0 Z M12.5934901,23.257841 L12.5819402,23.2595131 L12.5108777,23.2950439 L12.4918791,23.2987469 L12.4918791,23.2987469 L12.4767152,23.2950439 L12.4056548,23.2595131 C12.3958229,23.2563662 12.3870493,23.2590235 12.3821421,23.2649074 L12.3780323,23.275831 L12.360941,23.7031097 L12.3658947,23.7234994 L12.3769048,23.7357139 L12.4804777,23.8096931 L12.4953491,23.8136134 L12.4953491,23.8136134 L12.5071152,23.8096931 L12.6106902,23.7357139 L12.6232938,23.7196733 L12.6232938,23.7196733 L12.6266527,23.7031097 L12.609561,23.275831 C12.6075724,23.2657013 12.6010112,23.2592993 12.5934901,23.257841 L12.5934901,23.257841 Z M12.8583906,23.1452862 L12.8445485,23.1473072 L12.6598443,23.2396597 L12.6498822,23.2499052 L12.6498822,23.2499052 L12.6471943,23.2611114 L12.6650943,23.6906389 L12.6699349,23.7034178 L12.6699349,23.7034178 L12.678386,23.7104931 L12.8793402,23.8032389 C12.8914285,23.8068999 12.9022333,23.8029875 12.9078286,23.7952264 L12.9118235,23.7811639 L12.8776777,23.1665331 C12.8752882,23.1545897 12.8674102,23.1470016 12.8583906,23.1452862 L12.8583906,23.1452862 Z M12.1430473,23.1473072 C12.1332178,23.1423925 12.1221763,23.1452606 12.1156365,23.1525954 L12.1099173,23.1665331 L12.0757714,23.7811639 C12.0751323,23.7926639 12.0828099,23.8018602 12.0926481,23.8045676 L12.108256,23.8032389 L12.3092106,23.7104931 L12.3186497,23.7024347 L12.3186497,23.7024347 L12.3225043,23.6906389 L12.340401,23.2611114 L12.337245,23.2485176 L12.337245,23.2485176 L12.3277531,23.2396597 L12.1430473,23.1473072 Z" id="MingCute" fill-rule="nonzero"></path>
                <path d="M12.7929,3.17156 C13.1834,2.78103 13.8166,2.78103 14.2071,3.17156 C14.5675615,3.53204 14.5952893,4.09926651 14.2902834,4.49156153 L14.2071,4.58577 L13.7929,4.99994 L16,4.99994 C17.597725,4.99994 18.903664,6.24885462 18.9949075,7.82366664 L19,7.99994 L19,15.1706 C20.1652,15.5825 21,16.6937 21,17.9999 C21,19.6568 19.6569,20.9999 18,20.9999 C16.3431,20.9999 15,19.6568 15,17.9999 C15,16.75901 15.753407,15.6941075 16.8277611,15.2375667 L17,15.1706 L17,7.99994 C17,7.48709929 16.613973,7.06443214 16.1166239,7.00666766 L16,6.99994 L13.7929,6.99994 L14.2072,7.41415 C14.5977,7.80468 14.5977,8.43784 14.2072,8.82837 C13.8466462,9.18885 13.2794651,9.21657923 12.8871224,8.91155769 L12.7929,8.82837 L10.6716,6.70705 C10.3111385,6.34656077 10.2834107,5.77933355 10.5884166,5.38703848 L10.6716,5.29283 L12.7929,3.17156 Z M6,2.99994 C7.65685,2.99994 9,4.34308 9,5.99994 C9,7.240849 8.24658398,8.30578855 7.1722376,8.76227298 L7,8.82923 L7,15.1706 C8.16519,15.5825 9,16.6937 9,17.9999 C9,19.6568 7.65685,20.9999 6,20.9999 C4.34315,20.9999 3,19.6568 3,17.9999 C3,16.75901 3.75341603,15.6941075 4.8277624,15.2375667 L5,15.1706 L5,8.82923 C3.83481,8.4174 3,7.30616 3,5.99994 C3,4.34308 4.34315,2.99994 6,2.99994 Z" id="形状" fill="#09244B"></path>
            </g>
        </g>
    </g>
</svg>

<svg xmlns="http://www.w3.org/2000/svg" width="24" height="24"><g fill="none" fill-rule="nonzero"><path d="M24 0v24H0V0h24ZM12.593 23.258l-.011.002-.071.035-.02.004-.014-.004-.071-.035c-.01-.004-.019-.001-.024.005l-.004.01-.017.428.005.02.01.013.104.074.015.004.012-.004.104-.074.012-.016.004-.017-.017-.427c-.002-.01-.009-.017-.017-.018Zm.265-.113-.013.002-.185.093-.01.01-.003.011.018.43.005.012.008.007.201.093c.012.004.023 0 .029-.008l.004-.014-.034-.614c-.003-.012-.01-.02-.02-.022Zm-.715.002a.023.023 0 0 0-.027.006l-.006.014-.034.614c0 .012.007.02.017.024l.015-.002.201-.093.01-.008.004-.011.017-.43-.003-.012-.01-.01-.184-.092Z"/><path fill="#09244B" d="M12.793 3.172a1 1 0 0 1 1.497 1.32l-.083.094-.414.414H16a3 3 0 0 1 2.995 2.824L19 8v7.17A3.001 3.001 0 0 1 18 21a3 3 0 0 1-1.172-5.762L17 15.17V8a1 1 0 0 0-.883-.993L16 7h-2.207l.414.414a1 1 0 0 1-1.32 1.498l-.094-.084-2.121-2.12a1 1 0 0 1-.084-1.321l.084-.094 2.12-2.121ZM6 3a3 3 0 0 1 1.172 5.762L7 8.83v6.342A3.001 3.001 0 0 1 6 21a3 3 0 0 1-1.172-5.762L5 15.17V8.829A3.001 3.001 0 0 1 6 3Z"/></g></svg>
